X:4665
T:Polska
A:Jmtland
B:SvL J&H1 #29
C:e. Bengt Bixo
M:3/4
O:Sweden
R:Polska
Z:Richard Robinson 
%%TUNEURL: http://www.leeds.ac.uk/music/Info/RRTuneBk/gettune/00000c1e.html
%%ID:00000c1e
K:A
e|\
(3f(ed) d>c c>d| (3e(fg) g>a a>e| \
(3f(ed) e>c (3A(cA)| (3G(AB) BA (e<a)|\
(3f(ed) d>c c>d| (3e(fg) g>a (3a(ga)|\
ba fd fa|1 g(b/<g/) e3 :|2 g(b/<g/) e4 |:\
e2 (3.f(ed) c2| Ac (3B{cB}(AB) cA| EA GA Bd| (3.c(BA) (3.G(AB) BA|\
A>a (3f(ed) (3(dc)c| Ac (3B(AB) cA| EA GA (3B(AG)| .A2 A,4:|
